X:1
T:Title
%%score { ( 1 4 ) | ( 2 3 ) }
L:1/8
M:4/4
K:Ab
V:1 treble nm="Grand Piano"
V:4 treble 
V:2 bass 
V:3 bass 
V:1
 z4 z2[Q:1/4=100] [CE]2 | [CE]2 [Ec]2 [Ec]2 [DB][CA] | [DF]2 [FA]2 [FA]2 [EG][DF] | %3
 [CE]2 [CA]2 [EA]2 [DG][CA] |[M:3/4] [EB]6 |[M:1/4] [CE]2 |[M:4/4] [CE]2 [Ec]2 [Ec]2 [DB][CA] | %7
 [DF]2 [Fd]2 [Fd]2 [Fd]>[Fd] | c2 B2 A2 G2 |[M:3/4] [A,CA]6 |[M:1/4] c>d |[M:4/4] e6 z2 | B6 z2 | %13
 d6 z2 |[M:3/4] c6 |[M:1/4] c>d |[M:4/4] e2 e>=d e2 c>B | [FA]2 [FA]>[DF] [FA]2 [FA]>F | %18
 E2 c>c B2 G2 |[M:3/4] [CA]6 |] %20
V:2
 z4 z2 [A,,A,]2 | [A,,A,]2 [A,,A,]2 [A,,A,]2 [A,,A,][A,,A,] | [D,A,]2 [D,D]2 [D,D]2 [D,A,][D,A,] | %3
 [A,,A,]2 [A,,A,]2 [C,A,]2 E,-[A,,E,] |[M:3/4] [E,G,]6 |[M:1/4] [A,,A,]2 | %6
[M:4/4] [A,,A,]2 [A,,A,]2 [A,,A,]2 [A,,A,][A,,A,] | [D,A,]2 [D,A,]2 [D,A,]2 [D,A,]>[D,A,] | %8
 [E,A,E]2 [E,G,D]2 [E,A,C]2 [E,B,D]2 |[M:3/4] A,,6 |[M:1/4][K:treble] A>B |[M:4/4] c6 z2 | %12
 G6[K:bass][K:treble] z2 | B6[K:bass][K:treble] z2 |[M:3/4] A6 |[M:1/4] [A,E]>[A,B,E] | %16
[M:4/4] [A,CA]2 [A,CA]>[A,_CA] [A,=CA]2[K:bass] [A,E]>[A,CE] | %17
 [D,D]2 [D,D]>[D,A,] [D,D]2 [D,D]>[D,A,D] | [E,A,C]2 [E,A,E]>[E,A,E] [E,G,D]2 [E,B,D]2 | %19
[M:3/4] [A,,A,]6 |] %20
V:3
 x8 | x8 | x8 | z4 z2 .B,,2 |[M:3/4] x6 |[M:1/4] x2 |[M:4/4] x8 | x8 | x8 |[M:3/4] x6 | %10
[M:1/4][K:treble] x2 |[M:4/4] z2 A,>A, A,2 B>A | z2[K:bass] E,>E, E,2[K:treble] G>A | %13
 z2[K:bass] E,>E, E,2[K:treble] G>G |[M:3/4] z2 A,>A, A,2 |[M:1/4] x2 |[M:4/4] x6[K:bass] x2 | x8 | %18
 x8 |[M:3/4] x6 |] %20
V:4
 x8 | x8 | x8 | x8 |[M:3/4] x6 |[M:1/4] x2 |[M:4/4] x8 | x8 | x8 |[M:3/4] x6 |[M:1/4] x2 | %11
[M:4/4] z2 E>E E2 d>c | z2 E>E E2 B>c | z2 E>E E2 e>d |[M:3/4] z2 E>E E2 |[M:1/4] x2 |[M:4/4] x8 | %17
 x8 | x8 |[M:3/4] x6 |] %20

